X: 11125
T: Duke Of Leinster, The
R: reel
M: 4/4
K: Gmajor
D|:G2BG dGBc|dBeB dBAB|G2BG dGBc|dBAB GEDE|
G2BG dGBc|dBeB dBAB|GB B2 dB B2|1 dBAB GEDE:|2 dBAB GEDB||
|:dega bg g2|agbg ageg|dega bage|dBAB GEDB|
dega bg g2|agbg agef|g2fg efge|1 dBAB GEDB:|2 dBAB GEDE||

